images/6604458.svg

<?xml version="1.0" encoding="UTF-8"?>
<svg xmlns="http://www.w3.org/2000/svg" xmlns:xlink="http://www.w3.org/1999/xlink" width="300pt" height="300pt" viewBox="0 0 300 300" version="1.1">
<defs>
<g>
<symbol overflow="visible" id="glyph0-0">
<path style="stroke:none;" d="M 0.453125 1.59375 L 0.453125 -6.34375 L 4.953125 -6.34375 L 4.953125 1.59375 Z M 0.953125 1.09375 L 4.453125 1.09375 L 4.453125 -5.84375 L 0.953125 -5.84375 Z M 0.953125 1.09375 "/>
</symbol>
<symbol overflow="visible" id="glyph0-1">
<path style="stroke:none;" d="M 3.546875 -5.953125 C 2.898438 -5.953125 2.382812 -5.710938 2 -5.234375 C 1.625 -4.753906 1.4375 -4.101562 1.4375 -3.28125 C 1.4375 -2.445312 1.625 -1.789062 2 -1.3125 C 2.382812 -0.832031 2.898438 -0.59375 3.546875 -0.59375 C 4.191406 -0.59375 4.703125 -0.832031 5.078125 -1.3125 C 5.453125 -1.789062 5.640625 -2.445312 5.640625 -3.28125 C 5.640625 -4.101562 5.453125 -4.753906 5.078125 -5.234375 C 4.703125 -5.710938 4.191406 -5.953125 3.546875 -5.953125 Z M 3.546875 -6.6875 C 4.460938 -6.6875 5.195312 -6.375 5.75 -5.75 C 6.300781 -5.132812 6.578125 -4.3125 6.578125 -3.28125 C 6.578125 -2.238281 6.300781 -1.410156 5.75 -0.796875 C 5.195312 -0.179688 4.460938 0.125 3.546875 0.125 C 2.617188 0.125 1.878906 -0.179688 1.328125 -0.796875 C 0.773438 -1.410156 0.5 -2.238281 0.5 -3.28125 C 0.5 -4.3125 0.773438 -5.132812 1.328125 -5.75 C 1.878906 -6.375 2.617188 -6.6875 3.546875 -6.6875 Z M 3.546875 -6.6875 "/>
</symbol>
<symbol overflow="visible" id="glyph0-2">
<path style="stroke:none;" d="M 0.890625 -6.5625 L 1.765625 -6.5625 L 1.765625 -3.875 L 5 -3.875 L 5 -6.5625 L 5.890625 -6.5625 L 5.890625 0 L 5 0 L 5 -3.125 L 1.765625 -3.125 L 1.765625 0 L 0.890625 0 Z M 0.890625 -6.5625 "/>
</symbol>
<symbol overflow="visible" id="glyph0-3">
<path style="stroke:none;" d="M 0.890625 -6.5625 L 4.65625 -6.5625 L 4.65625 -5.8125 L 1.765625 -5.8125 L 1.765625 -3.875 L 4.375 -3.875 L 4.375 -3.140625 L 1.765625 -3.140625 L 1.765625 0 L 0.890625 0 Z M 0.890625 -6.5625 "/>
</symbol>
</g>
</defs>
<g id="surface54037">
<rect x="0" y="0" width="300" height="300" style="fill:rgb(100%,100%,100%);fill-opacity:1;stroke:none;"/>
<path style="fill:none;stroke-width:1;stroke-linecap:butt;stroke-linejoin:miter;stroke:rgb(0%,0%,0%);stroke-opacity:1;stroke-miterlimit:10;" d="M 116.9375 148.304688 L 116.9375 148.304688 M 116.605469 145.324219 L 114.886719 146.113281 M 116.273438 142.34375 L 112.839844 143.925781 M 115.941406 139.359375 L 110.789062 141.734375 M 115.609375 136.378906 L 108.738281 139.542969 M 115.410156 134.578125 L 107.503906 138.21875 "/>
<path style="fill:none;stroke-width:1.2;stroke-linecap:butt;stroke-linejoin:miter;stroke:rgb(0%,0%,0%);stroke-opacity:1;stroke-miterlimit:10;" d="M 116.9375 148.304688 L 128.238281 126.382812 "/>
<path style="fill:none;stroke-width:1.2;stroke-linecap:butt;stroke-linejoin:miter;stroke:rgb(0%,0%,0%);stroke-opacity:1;stroke-miterlimit:10;" d="M 130.273438 169.054688 L 116.9375 148.304688 "/>
<path style="fill:none;stroke-width:1.2;stroke-linecap:butt;stroke-linejoin:miter;stroke:rgb(0%,0%,0%);stroke-opacity:1;stroke-miterlimit:10;" d="M 93.085938 154.574219 L 116.9375 148.304688 "/>
<path style="fill:none;stroke-width:1.2;stroke-linecap:butt;stroke-linejoin:miter;stroke:rgb(0%,0%,0%);stroke-opacity:1;stroke-miterlimit:10;" d="M 128.238281 126.382812 L 152.875 125.210938 "/>
<path style=" stroke:none;fill-rule:nonzero;fill:rgb(0%,0%,0%);fill-opacity:1;" d="M 152.875 125.210938 L 162.546875 148.3125 L 169.871094 143.605469 Z M 152.875 125.210938 "/>
<path style=" stroke:none;fill-rule:nonzero;fill:rgb(0%,0%,0%);fill-opacity:1;" d="M 152.875 125.210938 L 168.042969 105.28125 L 160.308594 101.292969 Z M 152.875 125.210938 "/>
<path style="fill:none;stroke-width:1.2;stroke-linecap:butt;stroke-linejoin:miter;stroke:rgb(0%,0%,0%);stroke-opacity:1;stroke-miterlimit:10;" d="M 166.207031 145.957031 L 154.90625 167.878906 "/>
<path style="fill:none;stroke-width:1.2;stroke-linecap:butt;stroke-linejoin:miter;stroke:rgb(0%,0%,0%);stroke-opacity:1;stroke-miterlimit:10;" d="M 190.84375 144.785156 L 166.207031 145.957031 "/>
<path style="fill:none;stroke-width:1.2;stroke-linecap:butt;stroke-linejoin:miter;stroke:rgb(0%,0%,0%);stroke-opacity:1;stroke-miterlimit:10;" d="M 154.90625 167.878906 L 130.273438 169.054688 "/>
<path style="fill:none;stroke-width:1;stroke-linecap:butt;stroke-linejoin:miter;stroke:rgb(0%,0%,0%);stroke-opacity:1;stroke-miterlimit:10;" d="M 154.90625 167.878906 L 154.90625 167.878906 M 156.066406 170.648438 L 156.945312 170.082031 M 157.226562 173.414062 L 158.980469 172.285156 M 158.382812 176.179688 L 161.015625 174.488281 M 159.542969 178.949219 L 163.050781 176.691406 M 160.703125 181.714844 L 165.085938 178.898438 M 161.859375 184.484375 L 167.121094 181.101562 M 163.019531 187.25 L 169.160156 183.304688 M 164.175781 190.015625 L 171.195312 185.507812 M 164.582031 190.980469 L 171.902344 186.273438 "/>
<path style="fill:none;stroke-width:1;stroke-linecap:butt;stroke-linejoin:miter;stroke:rgb(0%,0%,0%);stroke-opacity:1;stroke-miterlimit:10;" d="M 130.273438 169.054688 L 130.273438 169.054688 M 128 171.011719 L 128.804688 171.671875 M 125.726562 172.96875 L 127.339844 174.289062 M 123.453125 174.925781 L 125.871094 176.90625 M 121.175781 176.882812 L 124.40625 179.523438 M 118.902344 178.839844 L 122.941406 182.140625 M 116.628906 180.796875 L 121.472656 184.757812 M 114.355469 182.753906 L 120.007812 187.375 M 112.082031 184.710938 L 118.539062 189.992188 M 111.292969 185.390625 L 118.03125 190.902344 "/>
<path style=" stroke:none;fill-rule:nonzero;fill:rgb(0%,0%,0%);fill-opacity:1;" d="M 91.675781 179.199219 L 113.082031 192.203125 L 116.238281 184.089844 Z M 91.675781 179.199219 "/>
<path style="fill:none;stroke-width:1.2;stroke-linecap:butt;stroke-linejoin:miter;stroke:rgb(0%,0%,0%);stroke-opacity:1;stroke-miterlimit:10;" d="M 91.675781 179.199219 L 93.085938 154.574219 "/>
<path style="fill:none;stroke-width:1.2;stroke-linecap:butt;stroke-linejoin:miter;stroke:rgb(100%,0%,0%);stroke-opacity:1;stroke-miterlimit:10;" d="M 67.824219 185.46875 L 79.75 182.332031 "/>
<path style="fill:none;stroke-width:1.2;stroke-linecap:butt;stroke-linejoin:miter;stroke:rgb(0%,0%,0%);stroke-opacity:1;stroke-miterlimit:10;" d="M 79.75 182.332031 L 91.675781 179.199219 "/>
<path style="fill:none;stroke-width:1.2;stroke-linecap:butt;stroke-linejoin:miter;stroke:rgb(0%,0%,0%);stroke-opacity:1;stroke-miterlimit:10;" d="M 93.085938 154.574219 L 81.59375 150.101562 "/>
<path style="fill:none;stroke-width:1.2;stroke-linecap:butt;stroke-linejoin:miter;stroke:rgb(100%,0%,0%);stroke-opacity:1;stroke-miterlimit:10;" d="M 81.59375 150.101562 L 70.101562 145.628906 "/>
<path style="fill:none;stroke-width:1;stroke-linecap:butt;stroke-linejoin:miter;stroke:rgb(0%,0%,0%);stroke-opacity:1;stroke-miterlimit:10;" d="M 93.085938 154.574219 L 93.085938 154.574219 M 93.773438 151.65625 L 92.734375 151.597656 M 94.464844 148.734375 L 92.382812 148.617188 M 95.152344 145.816406 L 92.03125 145.636719 M 95.839844 142.898438 L 91.675781 142.660156 M 96.53125 139.976562 L 91.324219 139.679688 M 97.21875 137.058594 L 90.972656 136.699219 M 97.910156 134.136719 L 90.621094 133.71875 M 98.597656 131.21875 L 90.269531 130.742188 M 98.839844 130.199219 L 90.148438 129.703125 "/>
<path style="fill:none;stroke-width:1.2;stroke-linecap:butt;stroke-linejoin:miter;stroke:rgb(100%,0%,0%);stroke-opacity:1;stroke-miterlimit:10;" d="M 70.101562 145.628906 L 62.296875 155.175781 "/>
<path style="fill:none;stroke-width:1.2;stroke-linecap:butt;stroke-linejoin:miter;stroke:rgb(0%,0%,0%);stroke-opacity:1;stroke-miterlimit:10;" d="M 62.296875 155.175781 L 54.492188 164.722656 "/>
<path style=" stroke:none;fill-rule:nonzero;fill:rgb(100%,100%,100%);fill-opacity:1;" d="M 66.101562 140.128906 L 74.101562 140.128906 L 74.101562 151.128906 L 66.101562 151.128906 Z M 66.101562 140.128906 "/>
<g style="fill:rgb(100%,0%,0%);fill-opacity:1;">
  <use xlink:href="#glyph0-1" x="66.101562" y="148.791992"/>
</g>
<path style="fill:none;stroke-width:1.2;stroke-linecap:butt;stroke-linejoin:miter;stroke:rgb(0%,0%,0%);stroke-opacity:1;stroke-miterlimit:10;" d="M 54.492188 164.722656 L 61.15625 175.09375 "/>
<path style="fill:none;stroke-width:1.2;stroke-linecap:butt;stroke-linejoin:miter;stroke:rgb(100%,0%,0%);stroke-opacity:1;stroke-miterlimit:10;" d="M 61.15625 175.09375 L 67.824219 185.46875 "/>
<path style="fill:none;stroke-width:1.2;stroke-linecap:butt;stroke-linejoin:miter;stroke:rgb(0%,0%,0%);stroke-opacity:1;stroke-miterlimit:10;" d="M 54.492188 164.722656 L 37.132812 147.199219 "/>
<path style="fill:none;stroke-width:1.2;stroke-linecap:butt;stroke-linejoin:miter;stroke:rgb(0%,0%,0%);stroke-opacity:1;stroke-miterlimit:10;" d="M 54.492188 164.722656 L 35.25 180.152344 "/>
<path style=" stroke:none;fill-rule:nonzero;fill:rgb(100%,100%,100%);fill-opacity:1;" d="M 63.824219 179.96875 L 71.824219 179.96875 L 71.824219 190.96875 L 63.824219 190.96875 Z M 63.824219 179.96875 "/>
<g style="fill:rgb(100%,0%,0%);fill-opacity:1;">
  <use xlink:href="#glyph0-1" x="63.824219" y="188.631836"/>
</g>
<path style="fill:none;stroke-width:1.2;stroke-linecap:butt;stroke-linejoin:miter;stroke:rgb(0%,0%,0%);stroke-opacity:1;stroke-miterlimit:10;" d="M 95.796875 132.542969 L 101.652344 129.597656 "/>
<path style="fill:none;stroke-width:1.2;stroke-linecap:butt;stroke-linejoin:miter;stroke:rgb(100%,0%,0%);stroke-opacity:1;stroke-miterlimit:10;" d="M 101.652344 129.597656 L 107.503906 126.648438 "/>
<path style="fill:none;stroke-width:1.2;stroke-linecap:butt;stroke-linejoin:miter;stroke:rgb(0%,0%,0%);stroke-opacity:1;stroke-miterlimit:10;" d="M 93.1875 127.359375 L 99.042969 124.414062 "/>
<path style="fill:none;stroke-width:1.2;stroke-linecap:butt;stroke-linejoin:miter;stroke:rgb(100%,0%,0%);stroke-opacity:1;stroke-miterlimit:10;" d="M 99.042969 124.414062 L 104.894531 121.464844 "/>
<path style="fill:none;stroke-width:1.2;stroke-linecap:butt;stroke-linejoin:miter;stroke:rgb(0%,0%,0%);stroke-opacity:1;stroke-miterlimit:10;" d="M 94.492188 129.953125 L 73.871094 116.421875 "/>
<path style=" stroke:none;fill-rule:nonzero;fill:rgb(100%,100%,100%);fill-opacity:1;" d="M 102.199219 118.558594 L 110.199219 118.558594 L 110.199219 129.558594 L 102.199219 129.558594 Z M 102.199219 118.558594 "/>
<g style="fill:rgb(100%,0%,0%);fill-opacity:1;">
  <use xlink:href="#glyph0-1" x="102.199219" y="127.22168"/>
</g>
<path style="fill:none;stroke-width:1.2;stroke-linecap:butt;stroke-linejoin:miter;stroke:rgb(0%,0%,0%);stroke-opacity:1;stroke-miterlimit:10;" d="M 73.871094 116.421875 L 74.578125 104.109375 "/>
<path style="fill:none;stroke-width:1.2;stroke-linecap:butt;stroke-linejoin:miter;stroke:rgb(100%,0%,0%);stroke-opacity:1;stroke-miterlimit:10;" d="M 74.578125 104.109375 L 75.28125 91.800781 "/>
<path style=" stroke:none;fill-rule:nonzero;fill:rgb(100%,100%,100%);fill-opacity:1;" d="M 68.28125 86.300781 L 83.28125 86.300781 L 83.28125 97.300781 L 68.28125 97.300781 Z M 68.28125 86.300781 "/>
<g style="fill:rgb(100%,0%,0%);fill-opacity:1;">
  <use xlink:href="#glyph0-1" x="68.28125" y="94.963867"/>
  <use xlink:href="#glyph0-2" x="75.623047" y="94.963867"/>
</g>
<path style="fill:none;stroke-width:1.2;stroke-linecap:butt;stroke-linejoin:miter;stroke:rgb(0%,0%,0%);stroke-opacity:1;stroke-miterlimit:10;" d="M 168.242188 188.628906 L 192.878906 187.453125 "/>
<path style="fill:none;stroke-width:1.2;stroke-linecap:butt;stroke-linejoin:miter;stroke:rgb(0%,0%,0%);stroke-opacity:1;stroke-miterlimit:10;" d="M 192.878906 187.453125 L 204.179688 165.53125 "/>
<path style=" stroke:none;fill-rule:nonzero;fill:rgb(0%,0%,0%);fill-opacity:1;" d="M 192.878906 187.453125 L 202.550781 210.554688 L 209.871094 205.847656 Z M 192.878906 187.453125 "/>
<path style="fill:none;stroke-width:1.2;stroke-linecap:butt;stroke-linejoin:miter;stroke:rgb(0%,0%,0%);stroke-opacity:1;stroke-miterlimit:10;" d="M 204.179688 165.53125 L 228.8125 164.359375 "/>
<path style="fill:none;stroke-width:1.2;stroke-linecap:butt;stroke-linejoin:miter;stroke:rgb(0%,0%,0%);stroke-opacity:1;stroke-miterlimit:10;" d="M 206.367188 159.617188 L 226.074219 158.679688 "/>
<path style="fill:none;stroke-width:1.2;stroke-linecap:butt;stroke-linejoin:miter;stroke:rgb(0%,0%,0%);stroke-opacity:1;stroke-miterlimit:10;" d="M 190.84375 144.785156 L 204.179688 165.53125 "/>
<path style="fill:none;stroke-width:1.2;stroke-linecap:butt;stroke-linejoin:miter;stroke:rgb(0%,0%,0%);stroke-opacity:1;stroke-miterlimit:10;" d="M 228.8125 164.359375 L 240.113281 142.4375 "/>
<path style="fill:none;stroke-width:1.2;stroke-linecap:butt;stroke-linejoin:miter;stroke:rgb(0%,0%,0%);stroke-opacity:1;stroke-miterlimit:10;" d="M 240.253906 145.335938 L 252.570312 144.746094 "/>
<path style="fill:none;stroke-width:1.2;stroke-linecap:butt;stroke-linejoin:miter;stroke:rgb(100%,0%,0%);stroke-opacity:1;stroke-miterlimit:10;" d="M 252.570312 144.746094 L 264.886719 144.160156 "/>
<path style="fill:none;stroke-width:1.2;stroke-linecap:butt;stroke-linejoin:miter;stroke:rgb(0%,0%,0%);stroke-opacity:1;stroke-miterlimit:10;" d="M 239.976562 139.539062 L 252.292969 138.949219 "/>
<path style="fill:none;stroke-width:1.2;stroke-linecap:butt;stroke-linejoin:miter;stroke:rgb(100%,0%,0%);stroke-opacity:1;stroke-miterlimit:10;" d="M 252.292969 138.949219 L 264.613281 138.363281 "/>
<path style="fill:none;stroke-width:1.2;stroke-linecap:butt;stroke-linejoin:miter;stroke:rgb(0%,0%,0%);stroke-opacity:1;stroke-miterlimit:10;" d="M 240.113281 142.4375 L 226.78125 121.6875 "/>
<path style=" stroke:none;fill-rule:nonzero;fill:rgb(100%,100%,100%);fill-opacity:1;" d="M 260.75 135.761719 L 268.75 135.761719 L 268.75 146.761719 L 260.75 146.761719 Z M 260.75 135.761719 "/>
<g style="fill:rgb(100%,0%,0%);fill-opacity:1;">
  <use xlink:href="#glyph0-1" x="260.75" y="144.424805"/>
</g>
<path style="fill:none;stroke-width:1.2;stroke-linecap:butt;stroke-linejoin:miter;stroke:rgb(0%,0%,0%);stroke-opacity:1;stroke-miterlimit:10;" d="M 226.78125 121.6875 L 202.144531 122.863281 "/>
<path style="fill:none;stroke-width:1.2;stroke-linecap:butt;stroke-linejoin:miter;stroke:rgb(0%,0%,0%);stroke-opacity:1;stroke-miterlimit:10;" d="M 224.59375 127.601562 L 204.886719 128.539062 "/>
<path style="fill:none;stroke-width:1.2;stroke-linecap:butt;stroke-linejoin:miter;stroke:rgb(0%,0%,0%);stroke-opacity:1;stroke-miterlimit:10;" d="M 202.144531 122.863281 L 190.84375 144.785156 "/>
<path style=" stroke:none;fill-rule:nonzero;fill:rgb(0%,0%,0%);fill-opacity:1;" d="M 190.84375 144.785156 L 181.171875 121.683594 L 173.847656 126.390625 Z M 190.84375 144.785156 "/>
<path style=" stroke:none;fill-rule:nonzero;fill:rgb(100%,100%,100%);fill-opacity:1;" d="M 203.210938 202.699219 L 209.210938 202.699219 L 209.210938 213.699219 L 203.210938 213.699219 Z M 203.210938 202.699219 "/>
<g style="fill:rgb(20%,80%,80%);fill-opacity:1;">
  <use xlink:href="#glyph0-3" x="203.210938" y="211.362305"/>
</g>
<path style=" stroke:none;fill-rule:nonzero;fill:rgb(100%,100%,100%);fill-opacity:1;" d="M 157.175781 97.789062 L 172.175781 97.789062 L 172.175781 108.789062 L 157.175781 108.789062 Z M 157.175781 97.789062 "/>
<g style="fill:rgb(100%,0%,0%);fill-opacity:1;">
  <use xlink:href="#glyph0-1" x="157.175781" y="106.452148"/>
  <use xlink:href="#glyph0-2" x="164.517578" y="106.452148"/>
</g>
</g>
</svg>

<svg xmlns="http://www.w3.org/2000/svg" xmlns:xlink="http://www.w3.org/1999/xlink" width="300pt" height="300pt" viewBox="0 0 300 300"><defs><symbol overflow="visible"><path d="M.453 1.594v-7.938h4.5v7.938zm.5-.5h3.5v-6.938h-3.5zm0 0"/></symbol><symbol overflow="visible" id="a"><path d="M3.547-5.953c-.65 0-1.164.242-1.547.72-.375.48-.563 1.13-.563 1.952 0 .835.188 1.49.563 1.967.383.48.898.72 1.547.72.644 0 1.156-.24 1.53-.72.376-.476.564-1.132.564-1.968 0-.822-.187-1.474-.562-1.954-.375-.477-.887-.72-1.53-.72zm0-.734c.914 0 1.648.312 2.203.937.55.617.828 1.438.828 2.47 0 1.042-.277 1.87-.828 2.483-.555.617-1.29.922-2.203.922-.93 0-1.668-.305-2.22-.922C.774-1.41.5-2.237.5-3.28c0-1.033.273-1.853.828-2.47.55-.625 1.29-.938 2.22-.938zm0 0"/></symbol><symbol overflow="visible" id="b"><path d="M.89-6.563h.876v2.688H5v-2.688h.89V0H5v-3.125H1.766V0H.89zm0 0"/></symbol><symbol overflow="visible" id="c"><path d="M.89-6.563h3.766v.75h-2.89v1.938h2.61v.734h-2.61V0H.89zm0 0"/></symbol></defs><g><path fill="#fff" d="M0 0h300v300H0z"/><path d="M116.938 148.305m-.333-2.98l-1.718.788m1.386-3.77l-3.433 1.583m3.1-4.567l-5.15 2.374m4.82-5.355l-6.872 3.163m6.672-4.965l-7.906 3.64" stroke="#000" stroke-miterlimit="10" fill="none"/><path d="M116.938 148.305l11.3-21.922M130.273 169.055l-13.335-20.75M93.086 154.574l23.852-6.27M128.238 126.383l24.637-1.172" stroke-width="1.2" stroke="#000" stroke-miterlimit="10" fill="none"/><path d="M152.875 125.21l9.672 23.103 7.324-4.708zm0 0M152.875 125.21l15.168-19.93-7.734-3.987zm0 0"/><path d="M166.207 145.957l-11.3 21.922M190.844 144.785l-24.637 1.172M154.906 167.88l-24.633 1.175" stroke-width="1.2" stroke="#000" stroke-miterlimit="10" fill="none"/><path d="M154.906 167.88m1.16 2.768l.88-.566m.28 3.332l1.754-1.13m-.597 3.896l2.633-1.692m-1.473 4.46l3.508-2.257m-2.347 5.025l4.383-2.817m-3.227 5.586l5.26-3.382m-4.1 6.148l6.14-3.945m-4.984 6.71l7.02-4.507m-6.614 5.472l7.32-4.707M130.273 169.055 128 171.012l.805.66m-3.078 1.297l1.613 1.32m-3.887.636l2.418 1.98m-4.694-.023l3.23 2.64m-5.504-.683l4.04 3.3m-6.313-1.343l4.843 3.96m-7.118-2.003l5.653 4.62m-7.926-2.663l6.457 5.282m-7.247-4.6l6.738 5.51" stroke="#000" stroke-miterlimit="10" fill="none"/><path d="M91.676 179.2l21.406 13.003 3.156-8.113zm0 0"/><path d="M91.676 179.2l1.41-24.626" stroke-width="1.2" stroke="#000" stroke-miterlimit="10" fill="none"/><path d="M67.824 185.47l11.926-3.138" stroke-width="1.2" stroke="#f00" stroke-miterlimit="10" fill="none"/><path d="M79.75 182.332l11.926-3.133M93.086 154.574l-11.492-4.472" stroke-width="1.2" stroke="#000" stroke-miterlimit="10" fill="none"/><path d="M81.594 150.102l-11.492-4.473" stroke-width="1.2" stroke="#f00" stroke-miterlimit="10" fill="none"/><path d="M93.086 154.574m.687-2.918l-1.04-.058m1.732-2.864l-2.082-.117m2.77-2.8l-3.122-.18m3.81-2.74l-4.164-.237m4.855-2.683l-5.206-.297m5.895-2.62l-6.247-.36m6.937-2.563l-7.29-.418m7.978-2.5l-8.328-.478m8.57-.543l-8.692-.497" stroke="#000" stroke-miterlimit="10" fill="none"/><path d="M70.102 145.63l-7.805 9.546" stroke-width="1.2" stroke="#f00" stroke-miterlimit="10" fill="none"/><path d="M62.297 155.176l-7.805 9.547" stroke-width="1.2" stroke="#000" stroke-miterlimit="10" fill="none"/><path d="M66.102 140.13h8v11h-8zm0 0" fill="#fff"/><use xlink:href="#a" x="66.102" y="148.792" fill="#f00"/><path d="M54.492 164.723l6.664 10.37" stroke-width="1.2" stroke="#000" stroke-miterlimit="10" fill="none"/><path d="M61.156 175.094l6.668 10.375" stroke-width="1.2" stroke="#f00" stroke-miterlimit="10" fill="none"/><path d="M54.492 164.723L37.132 147.2M54.492 164.723l-19.242 15.43" stroke-width="1.2" stroke="#000" stroke-miterlimit="10" fill="none"/><path d="M63.824 179.97h8v11h-8zm0 0" fill="#fff"/><use xlink:href="#a" x="63.824" y="188.632" fill="#f00"/><path d="M95.797 132.543l5.855-2.945" stroke-width="1.2" stroke="#000" stroke-miterlimit="10" fill="none"/><path d="M101.652 129.598l5.852-2.95" stroke-width="1.2" stroke="#f00" stroke-miterlimit="10" fill="none"/><path d="M93.188 127.36l5.855-2.946" stroke-width="1.2" stroke="#000" stroke-miterlimit="10" fill="none"/><path d="M99.043 124.414l5.852-2.95" stroke-width="1.2" stroke="#f00" stroke-miterlimit="10" fill="none"/><path d="M94.492 129.953l-20.62-13.53" stroke-width="1.2" stroke="#000" stroke-miterlimit="10" fill="none"/><path d="M102.2 118.56h8v11h-8zm0 0" fill="#fff"/><use xlink:href="#a" x="102.199" y="127.222" fill="#f00"/><path d="M73.87 116.422l.708-12.313" stroke-width="1.2" stroke="#000" stroke-miterlimit="10" fill="none"/><path d="M74.578 104.11l.703-12.31" stroke-width="1.2" stroke="#f00" stroke-miterlimit="10" fill="none"/><path d="M68.28 86.3h15v11h-15zm0 0" fill="#fff"/><g fill="#f00"><use xlink:href="#a" x="68.281" y="94.964"/><use xlink:href="#b" x="75.623" y="94.964"/></g><path d="M168.242 188.63l24.637-1.177M192.88 187.453l11.3-21.922" stroke-width="1.2" stroke="#000" stroke-miterlimit="10" fill="none"/><path d="M192.88 187.453l9.67 23.102 7.32-4.707zm0 0"/><path d="M204.18 165.53l24.632-1.17M206.367 159.617l19.707-.937M190.844 144.785l13.336 20.746M228.813 164.36l11.3-21.923M240.254 145.336l12.316-.59" stroke-width="1.2" stroke="#000" stroke-miterlimit="10" fill="none"/><path d="M252.57 144.746l12.317-.586" stroke-width="1.2" stroke="#f00" stroke-miterlimit="10" fill="none"/><path d="M239.977 139.54l12.316-.59" stroke-width="1.2" stroke="#000" stroke-miterlimit="10" fill="none"/><path d="M252.293 138.95l12.32-.587" stroke-width="1.2" stroke="#f00" stroke-miterlimit="10" fill="none"/><path d="M240.113 142.438l-13.332-20.75" stroke-width="1.2" stroke="#000" stroke-miterlimit="10" fill="none"/><path d="M260.75 135.762h8v11h-8zm0 0" fill="#fff"/><use xlink:href="#a" x="260.75" y="144.425" fill="#f00"/><path d="M226.78 121.688l-24.635 1.175M224.594 127.602l-19.707.937M202.145 122.863l-11.3 21.922" stroke-width="1.2" stroke="#000" stroke-miterlimit="10" fill="none"/><path d="M190.844 144.785l-9.672-23.1-7.324 4.706zm0 0"/><path d="M203.21 202.7h6v11h-6zm0 0" fill="#fff"/><use xlink:href="#c" x="203.211" y="211.362" fill="#3cc"/><path d="M157.176 97.79h15v11h-15zm0 0" fill="#fff"/><g fill="#f00"><use xlink:href="#a" x="157.176" y="106.452"/><use xlink:href="#b" x="164.518" y="106.452"/></g></g></svg>
